img/lacambre-logo-line.svg

<?xml version="1.0" encoding="UTF-8"?>
<svg width="72px" height="31px" viewBox="0 0 72 31" version="1.1" xmlns="http://www.w3.org/2000/svg" xmlns:xlink="http://www.w3.org/1999/xlink">
    <!-- Generator: Sketch 48.2 (47327) - http://www.bohemiancoding.com/sketch -->
    <title>lacambre-logo-line</title>
    <desc>Created with Sketch.</desc>
    <defs>
        <path d="M58.0025563,0 C66.1576045,0 72,6.45566074 72,14.3634181 L72,31 L66.0154493,30.9585536 L66.0154493,14.3219716 C66.0154493,10.0226581 62.4367979,5.99853605 58.0025563,5.99853605 C53.5680358,5.99853605 49.9963741,10.0173523 49.9963741,14.316137 L49.9963741,30.9510315 L43.9993253,30.9983126 L43.9993253,14.3634181 C43.9993253,10.0651387 40.4310424,5.99853605 36,5.99853605 C31.5666821,5.99853605 28.0336888,10.0727987 28.0336888,14.3709401 L28.0336888,30.9585536 L22.030424,30.9781832 L22.030424,14.3709401 C22.030424,10.0721554 18.4359449,5.99853605 14.0014245,5.99853605 C9.56673228,5.99853605 6.00533476,10.0247824 6.00533476,14.323659 L6.00533476,30.9585536 L0,30.9585536 L0,14.323659 C0,6.41593775 5.8442058,0 14.0014245,0 C18.4778663,3.13651015e-14 22.2197153,1.73554808 24.9969277,5.00324976 C27.7765012,1.73440681 31.5226752,0 36,0 C40.472922,0 44.2144797,1.73576857 46.9956641,5.00324976 C49.7743958,1.73392426 53.5234422,0 58.0025563,0 Z" id="path-1"></path>
    </defs>
    <g id="Page-1" stroke="none" stroke-width="1" fill="none" fill-rule="evenodd">
        <g id="lacambre-logo-line" fill-rule="nonzero">
            <use fill="#FFFFFF" fill-rule="evenodd" xlink:href="#path-1"></use>
            <path stroke="#000000" stroke-width="1" d="M0.5,30.4585536 L5.50533476,30.4585536 L5.50533476,14.323659 C5.50533476,9.64568248 9.38592409,5.49853605 14.0014245,5.49853605 C18.6150572,5.49853605 22.530424,9.69097694 22.530424,14.3709401 L22.530424,30.4765456 L27.5336888,30.4601858 L27.5336888,14.3709401 C27.5336888,9.68000651 31.396892,5.49853605 36,5.49853605 C40.6076885,5.49853605 44.4993253,9.68080278 44.4993253,14.3634181 L44.4993253,30.4943551 L49.4963741,30.454958 L49.4963741,14.316137 C49.4963741,9.64148296 53.3845689,5.49853605 58.0025563,5.49853605 C62.6207077,5.49853605 66.5154493,9.64729696 66.5154493,14.3219716 L66.5154493,30.4620044 L71.5,30.4965252 L71.5,14.3634181 C71.5,6.56410838 65.7211211,0.5 58.0025563,0.5 C53.6935738,0.5 50.0752179,2.15204627 47.376645,5.32706078 L46.9959396,5.77498092 L46.6149145,5.32733269 C43.9118934,2.15168187 40.299913,0.5 36,0.5 C31.6937907,0.5 28.0779279,2.15177537 25.3778366,5.32714547 L24.9968324,5.77521529 L24.6159388,5.32705136 C21.9171761,2.15165455 18.3051054,0.5 14.0014245,0.5 C6.27298517,0.5 0.5,6.53303512 0.5,14.323659 L0.5,30.4585536 Z"></path>
        </g>
    </g>
</svg>

<svg width="72" height="31" viewBox="0 0 72 31" xmlns="http://www.w3.org/2000/svg" xmlns:xlink="http://www.w3.org/1999/xlink"><defs><path d="M58.003 0C66.158 0 72 6.456 72 14.363V31l-5.985-.041V14.322c0-4.3-3.578-8.323-8.012-8.323-4.435 0-8.007 4.018-8.007 8.317v16.635L44 30.998V14.363C44 10.065 40.431 6 36 6c-4.433 0-7.966 4.074-7.966 8.372V30.96l-6.004.02V14.37c0-4.299-3.594-8.372-8.029-8.372-4.434 0-7.996 4.026-7.996 8.325v16.635H0V14.324C0 6.416 5.844 0 14.001 0c4.477 0 8.219 1.736 10.996 5.003C27.777 1.734 31.523 0 36 0c4.473 0 8.214 1.736 10.996 5.003C49.774 1.733 53.523 0 58.003 0z" id="a"/></defs><g fill="none"><use fill="#FFF" fill-rule="evenodd" xlink:href="#a"/><path stroke="#000" d="M.5 30.459h5.005V14.324c0-4.678 3.88-8.825 8.496-8.825 4.614 0 8.53 4.192 8.53 8.872v16.106l5.003-.017V14.37c0-4.69 3.863-8.87 8.466-8.87 4.608 0 8.5 4.182 8.5 8.864v16.131l4.996-.039v-16.14c0-4.675 3.889-8.817 8.507-8.817s8.512 4.148 8.512 8.823v16.14l4.985.035V14.363C71.5 6.564 65.721.5 58.003.5c-4.31 0-7.928 1.652-10.626 4.827l-.381.448-.381-.448C43.912 2.152 40.3.5 36 .5c-4.306 0-7.922 1.652-10.622 4.827l-.381.448-.381-.448C21.917 2.152 18.306.5 14 .5 6.273.5.5 6.533.5 14.324v16.135z"/></g></svg>
